X:1
T:Lead Belly
M:4/4
L:1/8
Q:1/4=108
K:Em
E2 E2 E2 E2 | G2 A2 B2 z2 | B2 B2 A2 G2 | E4 z4 |
E2 G2 A2 B2 | B2 A2 G2 E2 | D2 E2 G2 E2 | E4 z4 |
B2 B2 B2 d2 | B2 A2 G2 E2 | G2 A2 B2 A2 | G4 E2 z2 |
E2 E2 G2 A2 | B4 A2 G2 | E2 G2 E2 D2 | E6 z2 |
